src/svgs/link.svg

<?xml version="1.0" encoding="UTF-8" standalone="no"?>
<!-- Created with Inkscape (http://www.inkscape.org/) -->

<svg
   xmlns:dc="http://purl.org/dc/elements/1.1/"
   xmlns:cc="http://creativecommons.org/ns#"
   xmlns:rdf="http://www.w3.org/1999/02/22-rdf-syntax-ns#"
   xmlns:svg="http://www.w3.org/2000/svg"
   xmlns="http://www.w3.org/2000/svg"
   xmlns:sodipodi="http://sodipodi.sourceforge.net/DTD/sodipodi-0.dtd"
   xmlns:inkscape="http://www.inkscape.org/namespaces/inkscape"
   width="20"
   height="20"
   id="svg5738"
   version="1.1"
   inkscape:version="0.48.5 r10040"
   sodipodi:docname="link.svg">
  <defs
     id="defs5740" />
  <sodipodi:namedview
     id="base"
     pagecolor="#ffffff"
     bordercolor="#666666"
     borderopacity="1.0"
     inkscape:pageopacity="0.0"
     inkscape:pageshadow="2"
     inkscape:zoom="32"
     inkscape:cx="6.1314607"
     inkscape:cy="5.3755975"
     inkscape:document-units="px"
     inkscape:current-layer="layer1"
     showgrid="false"
     inkscape:window-width="1033"
     inkscape:window-height="844"
     inkscape:window-x="485"
     inkscape:window-y="19"
     inkscape:window-maximized="0">
    <inkscape:grid
       type="xygrid"
       id="grid5746"
       empspacing="5"
       visible="true"
       enabled="true"
       snapvisiblegridlinesonly="true" />
  </sodipodi:namedview>
  <metadata
     id="metadata5743">
    <rdf:RDF>
      <cc:Work
         rdf:about="">
        <dc:format>image/svg+xml</dc:format>
        <dc:type
           rdf:resource="http://purl.org/dc/dcmitype/StillImage" />
        <dc:title />
      </cc:Work>
    </rdf:RDF>
  </metadata>
  <g
     inkscape:label="Layer 1"
     inkscape:groupmode="layer"
     id="layer1"
     transform="translate(0,-1032.3622)">
    <path
       style="color:#000000;fill:#000000;fill-opacity:1;fill-rule:nonzero;stroke:none;stroke-width:1;marker:none;visibility:visible;display:inline;overflow:visible;enable-background:accumulate"
       d="M 6 6 C 3 6 3 9 3 9 L 3 11 L 3 12 C 3 12 3 14 5.5 14 C 6.0522851 14 6.5 13.5523 6.5 13 C 6.5 12.4477 6.0522851 12 5.5 12 C 5.5 12 5 12 5 11.5 L 5 9 C 5 9 5 8 6 8 L 10 8 C 11 8 11 9 11 9 L 11 10 C 11 10 11 11 12 11 C 13 11 13 10 13 10 L 13 9 C 13 9 13.0013 8.3294 12.6875 7.625 C 12.64866 7.538 12.580298 7.4622 12.53125 7.375 C 12.135511 6.6717 11.411517 6 10 6 L 6 6 z M 14.5 6 C 13.947715 6 13.5 6.4477153 13.5 7 C 13.5 7.5522847 13.947715 8 14.5 8 C 14.5 8 15 8 15 8.5 L 15 11 C 15 11 15 12 14 12 L 10 12 C 9 12 9 11 9 11 L 9 10 C 9 10 9 9 8 9 C 7 9 7 10 7 10 L 7 11 C 7 11 6.99868 11.670579 7.3125 12.375 C 7.351339 12.46218 7.4197019 12.537832 7.46875 12.625 C 7.8644889 13.328303 8.5884831 14 10 14 L 14 14 C 17 14 17 11 17 11 L 17 9 L 17 8 C 17 8 17 6 14.5 6 z "
       transform="translate(0,1032.3622)"
       id="rect3515" />
  </g>
</svg>

<?xml version="1.0" encoding="UTF-8" standalone="yes"?>
<svg viewBox="0 0 20 20">
  <path d="M5.5,12c0,0-0.5,0-0.5-0.5V9c0,0,0-1,1-1h4c1,0,1,1,1,1v1c0,0,0,1,1,1s1-1,1-1V9c0,0,0-0.7-0.3-1.4c0-0.1-0.1-0.2-0.2-0.2
	C12.1,6.7,11.4,6,10,6H6C3,6,3,9,3,9v2v1c0,0,0,2,2.5,2c0.6,0,1-0.4,1-1S6.1,12,5.5,12z"/>
  <path d="M14.5,6c-0.6,0-1,0.4-1,1s0.4,1,1,1c0,0,0.5,0,0.5,0.5V11c0,0,0,1-1,1h-4c-1,0-1-1-1-1v-1c0,0,0-1-1-1s-1,1-1,1v1
	c0,0,0,0.7,0.3,1.4c0,0.1,0.1,0.2,0.2,0.2C7.9,13.3,8.6,14,10,14h4c3,0,3-3,3-3V9V8C17,8,17,6,14.5,6z"/>
</svg>
